src/assets/2016.svg

<svg width="2283" height="2021" fill="none" xmlns="http://www.w3.org/2000/svg">
  <g filter="url(#filter0_d)">
    <path d="M1557.39 646.922c-33.12-31.266-5.86-167.338-118.72-197.688C1288.1 408.739 281.812 0 281.812 0L25 490.485s621.607 646.005 658.141 683.945c36.534 37.95 193.327 123.81 301.033 94.64 107.706-29.17 144.036-83.61 144.036-46.42s-95.14 182.5-32.78 244.48c62.35 61.97 176.62 66.86 257.87 101.86s-93.2 322.23 233.19 371.56c326.39 49.33 261.83-199.17 285.13-237.82 23.31-38.64 117.87 6.43 154.4-13.99 36.54-20.41 31.64-98.66 74-127.37 42.37-28.72 55.63-15.09 112.44-33.13 56.81-18.04 44.21-149.91 39.71-157.56-4.5-7.66-33.97-77.31-42.37-92.77-8.24-15.19-12.02-24.7-21.58-48.75l-.52-1.32c-9.95-25.03 12.32-49.77 35-94.24 22.67-44.48 64.25-96.13 4.42-146.153-59.84-50.027-142.91 16.173-178.67-33.5-35.76-49.673 5.43-84.671-74.05-116.331-79.47-31.66-211.82 59.689-274.82 49.33-62.99-10.359-12.52-118.171-34.99-148.358-22.47-30.187-74.08-60.4-107.2-91.666z" fill="#fff"/>
  </g>
  <defs>
    <filter id="filter0_d" x="0" y="0" width="2283" height="2021" filterUnits="userSpaceOnUse" color-interpolation-filters="sRGB">
      <feFlood flood-opacity="0" result="BackgroundImageFix"/>
      <feColorMatrix in="SourceAlpha" values="0 0 0 0 0 0 0 0 0 0 0 0 0 0 0 0 0 0 127 0"/>
      <feOffset dy="49"/>
      <feGaussianBlur stdDeviation="12.5"/>
      <feColorMatrix values="0 0 0 0 0 0 0 0 0 0 0 0 0 0 0 0 0 0 0.25 0"/>
      <feBlend in2="BackgroundImageFix" result="effect1_dropShadow"/>
      <feBlend in="SourceGraphic" in2="effect1_dropShadow" result="shape"/>
    </filter>
  </defs>
</svg>

<svg width="2283" height="2021" viewBox="0 0 2283 2021" fill="none" xmlns="http://www.w3.org/2000/svg">
<g filter="url(#filter0_d)">
<path d="M1557.39 646.922C1524.27 615.656 1551.53 479.584 1438.67 449.234C1288.1 408.739 281.812 0 281.812 0L25 490.485C25 490.485 646.607 1136.49 683.141 1174.43C719.675 1212.38 876.468 1298.24 984.174 1269.07C1091.88 1239.9 1128.21 1185.46 1128.21 1222.65C1128.21 1259.84 1033.07 1405.15 1095.43 1467.13C1157.78 1529.1 1272.05 1533.99 1353.3 1568.99C1434.55 1603.99 1260.1 1891.22 1586.49 1940.55C1912.88 1989.88 1848.32 1741.38 1871.62 1702.73C1894.93 1664.09 1989.49 1709.16 2026.02 1688.74C2062.56 1668.33 2057.66 1590.08 2100.02 1561.37C2142.39 1532.65 2155.65 1546.28 2212.46 1528.24C2269.27 1510.2 2256.67 1378.33 2252.17 1370.68C2247.67 1363.02 2218.2 1293.37 2209.8 1277.91C2201.56 1262.72 2197.78 1253.21 2188.22 1229.16L2187.7 1227.84C2177.75 1202.81 2200.02 1178.07 2222.7 1133.6C2245.37 1089.12 2286.95 1037.47 2227.12 987.447C2167.28 937.42 2084.21 1003.62 2048.45 953.947C2012.69 904.274 2053.88 869.276 1974.4 837.616C1894.93 805.956 1762.58 897.305 1699.58 886.946C1636.59 876.587 1687.06 768.775 1664.59 738.588C1642.12 708.401 1590.51 678.188 1557.39 646.922Z" fill="white"/>
</g>
<defs>
<filter id="filter0_d" x="0" y="0" width="2283" height="2021" filterUnits="userSpaceOnUse" color-interpolation-filters="sRGB">
<feFlood flood-opacity="0" result="BackgroundImageFix"/>
<feColorMatrix in="SourceAlpha" type="matrix" values="0 0 0 0 0 0 0 0 0 0 0 0 0 0 0 0 0 0 127 0"/>
<feOffset dy="49"/>
<feGaussianBlur stdDeviation="12.5"/>
<feColorMatrix type="matrix" values="0 0 0 0 0 0 0 0 0 0 0 0 0 0 0 0 0 0 0.25 0"/>
<feBlend mode="normal" in2="BackgroundImageFix" result="effect1_dropShadow"/>
<feBlend mode="normal" in="SourceGraphic" in2="effect1_dropShadow" result="shape"/>
</filter>
</defs>
</svg>
